X:1
T:Title
L:1/8
Q:1/4=100
M:4/4
K:C
V:1 treble nm="Church Organ, Staff"
V:1
 E2 E2 F^F G2 | e2 e2 dc B2 | A2 G2- G/ z/ A B2 | cd c2 E2 G2 | G2 B2 AG G2 | ^F2 c2 BA A2 | %6
w: By~Mr.~Herbert~Stephen~Irons * * * *||||||
 ^G2 A2 e2 d2 | G2 c2 B2 E2 | E2 F2 GA A2 | F2 d2 cd B2 | G2 e2- e/ z/ d c2 | A2 G6 | F2 E6 |] %13
w: |||||||

